packages/icons/src/components/ProductIcon/assets/artifact-registry.svg

<svg width="64" height="64" viewBox="0 0 64 64" fill="none" xmlns="http://www.w3.org/2000/svg">
<path d="M64 16C64 7.16344 56.8366 0 48 0H16C7.16344 0 0 7.16344 0 16V48C0 56.8366 7.16344 64 16 64H48C56.8366 64 64 56.8366 64 48V16Z" fill="#521094" class="fillWeak"/>
<path fill-rule="evenodd" clip-rule="evenodd" d="M16 2H48C55.732 2 62 8.26801 62 16V48C62 55.732 55.732 62 48 62H16C8.26801 62 2 55.732 2 48V16C2 8.26801 8.26801 2 16 2ZM48 0C56.8366 0 64 7.16344 64 16V48C64 56.8366 56.8366 64 48 64H16C7.16344 64 0 56.8366 0 48V16C0 7.16344 7.16344 0 16 0H48Z" fill="#521094" class="fillWeak"/>
<path fill-rule="evenodd" clip-rule="evenodd" d="M32.0283 6.50098C32.0446 6.50144 32.0609 6.50265 32.0771 6.50391C32.0918 6.50503 32.1065 6.50506 32.1211 6.50684L32.1602 6.5127C32.1792 6.51578 32.1979 6.52023 32.2168 6.52441C32.2292 6.52717 32.2416 6.52997 32.2539 6.5332C32.2581 6.5343 32.2624 6.53498 32.2666 6.53613C32.2841 6.54098 32.301 6.54789 32.3184 6.55371C32.3775 6.57359 32.4357 6.59763 32.4912 6.62891L53.4912 18.4688C53.8055 18.646 53.9999 18.979 54 19.3398V44.6602C53.9999 45.021 53.8056 45.354 53.4912 45.5312L32.4912 57.3711C32.4637 57.3866 32.4347 57.3984 32.4062 57.4111C32.3989 57.4144 32.3921 57.4188 32.3848 57.4219C32.3592 57.4326 32.3329 57.4408 32.3066 57.4492C32.289 57.4549 32.2717 57.4611 32.2539 57.4658C32.2352 57.4707 32.2162 57.4737 32.1973 57.4775C32.1742 57.4822 32.1513 57.4872 32.1279 57.4902C32.1088 57.4927 32.0896 57.4938 32.0703 57.4951C32.0469 57.4968 32.0235 57.499 32 57.499C31.9765 57.499 31.9531 57.4968 31.9297 57.4951C31.9101 57.4937 31.8906 57.4928 31.8711 57.4902C31.8481 57.4872 31.8255 57.4821 31.8027 57.4775C31.7835 57.4737 31.7641 57.4708 31.7451 57.4658C31.7273 57.4611 31.71 57.4549 31.6924 57.4492C31.6662 57.4407 31.6398 57.4326 31.6143 57.4219C31.6069 57.4188 31.6001 57.4144 31.5928 57.4111C31.5646 57.3985 31.536 57.3864 31.5088 57.3711L10.5088 45.5312C10.1944 45.354 10.0001 45.021 10 44.6602V19.3398C10.0001 18.979 10.1945 18.646 10.5088 18.4688L31.5088 6.62891C31.5224 6.62124 31.5369 6.61538 31.5508 6.6084C31.5717 6.59787 31.5919 6.58612 31.6133 6.57715C31.6389 6.56646 31.6662 6.55827 31.6924 6.5498C31.7019 6.54672 31.7111 6.54283 31.7207 6.54004L31.7363 6.53516C31.7392 6.53437 31.7422 6.53397 31.7451 6.5332C31.759 6.52956 31.7731 6.52746 31.7871 6.52441C31.8076 6.51994 31.8279 6.51489 31.8486 6.51172C31.8704 6.5084 31.8922 6.50579 31.9141 6.50391C31.9287 6.50264 31.9433 6.50159 31.958 6.50098C31.9694 6.5005 31.9808 6.50009 31.9922 6.5H32.0078C32.0147 6.50005 32.0215 6.50078 32.0283 6.50098ZM12 42.7881L17 39.9688V40.5C17.0001 40.8587 17.1924 41.1902 17.5039 41.3682L18.0439 41.6768L12.8945 44.5791L31 54.7881V32.0801L12 21.2227V42.7881ZM33 32.0801V54.7881L51.1045 44.5791L45.9561 41.6758L46.4961 41.3682C46.8076 41.1902 46.9999 40.8587 47 40.5V39.9688L52 42.7881V21.2227L33 32.0801ZM33 14.9189L32.4961 14.6318L32.3779 14.5742C32.0955 14.4589 31.7729 14.4781 31.5039 14.6318L31 14.9189V9.22266L13.0156 19.5L31.9873 30.3398H32.0117L50.9854 19.5L33 9.22266V14.9189Z" fill="#BF95F9" class="fillStrong"/>
<path d="M19 25.2226V39.9189L31 46.7753V49.08L17.5039 41.3681C17.1924 41.1901 17.0001 40.8587 17 40.4999V24.08L19 25.2226Z" fill="white" class="fill"/>
<path d="M47 40.4999C46.9999 40.8587 46.8076 41.1901 46.4961 41.3681L33 49.08V46.7753L45 39.9189V25.2226L47 24.079V40.4999Z" fill="white" class="fill"/>
<path d="M28.5 32.9999C29.0523 32.9999 29.5 33.4476 29.5 33.9999V41.9999C29.4999 42.5521 29.0522 42.9999 28.5 42.9999C27.9478 42.9999 27.5001 42.5521 27.5 41.9999V33.9999C27.5 33.4476 27.9477 32.9999 28.5 32.9999Z" fill="white" class="fill"/>
<path d="M35.5 32.9999C36.0523 32.9999 36.5 33.4476 36.5 33.9999V41.9999C36.4999 42.5521 36.0522 42.9999 35.5 42.9999C34.9478 42.9999 34.5001 42.5521 34.5 41.9999V33.9999C34.5 33.4476 34.9477 32.9999 35.5 32.9999Z" fill="white" class="fill"/>
<path d="M25 30.9999C25.5523 30.9999 26 31.4476 26 31.9999V39.9999C25.9999 40.5521 25.5522 40.9999 25 40.9999C24.4478 40.9999 24.0001 40.5521 24 39.9999V31.9999C24 31.4476 24.4477 30.9999 25 30.9999Z" fill="white" class="fill"/>
<path d="M39 30.9999C39.5523 30.9999 40 31.4476 40 31.9999V39.9999C39.9999 40.5521 39.5522 40.9999 39 40.9999C38.4478 40.9999 38.0001 40.5521 38 39.9999V31.9999C38 31.4476 38.4477 30.9999 39 30.9999Z" fill="white" class="fill"/>
<path d="M21.5 28.9999C22.0523 28.9999 22.5 29.4476 22.5 29.9999V37.9999C22.4999 38.5521 22.0522 38.9999 21.5 38.9999C20.9478 38.9999 20.5001 38.5521 20.5 37.9999V29.9999C20.5 29.4476 20.9477 28.9999 21.5 28.9999Z" fill="white" class="fill"/>
<path d="M42.5 28.9999C43.0523 28.9999 43.5 29.4476 43.5 29.9999V37.9999C43.4999 38.5521 43.0522 38.9999 42.5 38.9999C41.9478 38.9999 41.5001 38.5521 41.5 37.9999V29.9999C41.5 29.4476 41.9477 28.9999 42.5 28.9999Z" fill="white" class="fill"/>
<path d="M31.5039 14.6318C31.7729 14.478 32.0955 14.4588 32.3779 14.5741L32.4961 14.6318L45.999 22.3476L43.9844 23.499L32 16.6513L20.0156 23.499L18 22.3476L31.5039 14.6318Z" fill="white" class="fill"/>
</svg>

<svg xmlns="http://www.w3.org/2000/svg" width="64" height="64" fill="none" viewBox="0 0 64 64">
    <path fill="#521094" d="M64 16c0-8.837-7.163-16-16-16H16C7.163 0 0 7.163 0 16v32c0 8.837 7.163 16 16 16h32c8.837 0 16-7.163 16-16z" class="fillWeak"/>
    <path fill="#521094" fill-rule="evenodd" d="M16 2h32c7.732 0 14 6.268 14 14v32c0 7.732-6.268 14-14 14H16C8.268 62 2 55.732 2 48V16C2 8.268 8.268 2 16 2m32-2c8.837 0 16 7.163 16 16v32c0 8.837-7.163 16-16 16H16C7.163 64 0 56.837 0 48V16C0 7.163 7.163 0 16 0z" class="fillWeak" clip-rule="evenodd"/>
    <path fill="#bf95f9" fill-rule="evenodd" d="m32.028 6.501.05.003.043.003.04.006.056.011.037.01.013.002.051.018q.09.03.173.075l21 11.84a1 1 0 0 1 .509.87V44.66a1 1 0 0 1-.509.871l-21 11.84q-.041.022-.085.04-.01.006-.021.01-.039.017-.078.028l-.053.017q-.028.007-.057.011-.034.008-.07.013-.027.004-.057.005-.035.004-.07.004t-.07-.004q-.03-.001-.059-.005-.034-.005-.068-.013-.03-.004-.058-.011l-.053-.017q-.039-.011-.078-.027-.01-.006-.021-.01l-.084-.04-21-11.84A1 1 0 0 1 10 44.66V19.34a1 1 0 0 1 .509-.871l21-11.84q.02-.012.042-.02.03-.018.062-.032.04-.015.08-.027l.028-.01.015-.005.01-.002.041-.009q.03-.007.062-.012a1 1 0 0 1 .143-.012h.016zM12 42.788l5-2.82v.532a1 1 0 0 0 .504.868l.54.309-5.15 2.902L31 54.79V32.08L12 21.223zM33 32.08v22.708L51.105 44.58l-5.149-2.903.54-.308A1 1 0 0 0 47 40.5v-.531l5 2.82V21.222zm0-17.161-.504-.287-.118-.058a1 1 0 0 0-.874.058l-.504.287V9.223L13.016 19.5l18.971 10.84h.025L50.985 19.5 33 9.223z" class="fillStrong" clip-rule="evenodd"/>
    <path fill="#fff" d="M19 25.223v14.696l12 6.856v2.305l-13.496-7.712A1 1 0 0 1 17 40.5V24.08zM47 40.5a1 1 0 0 1-.504.868L33 49.08v-2.305l12-6.856V25.223l2-1.144z" class="fill"/>
    <path fill="#fff" d="M28.5 33a1 1 0 0 1 1 1v8a1 1 0 0 1-2 0v-8a1 1 0 0 1 1-1m7 0a1 1 0 0 1 1 1v8a1 1 0 0 1-2 0v-8a1 1 0 0 1 1-1M25 31a1 1 0 0 1 1 1v8a1 1 0 0 1-2 0v-8a1 1 0 0 1 1-1m14 0a1 1 0 0 1 1 1v8a1 1 0 0 1-2 0v-8a1 1 0 0 1 1-1m-17.5-2a1 1 0 0 1 1 1v8a1 1 0 0 1-2 0v-8a1 1 0 0 1 1-1m21 0a1 1 0 0 1 1 1v8a1 1 0 0 1-2 0v-8a1 1 0 0 1 1-1M31.504 14.632a1 1 0 0 1 .874-.058l.118.058L46 22.348l-2.015 1.151L32 16.651 20.016 23.5 18 22.348z" class="fill"/>
</svg>
